X:1
T:No melas amuestras
T:Anonymous
T:Source : Cancionero de Uppsala : Villancicos---Venetia---G.Scotto---1556. Editor : André Vierendeels (08/04/17).
T:Notes : Original clefs : T1 :C2 (except m 1 to m 8 : C3), T 2 : C3 Editorial accidentals above the staff Square bracket indicates ligature Original note values have been halved Source is inconsistent between amuestras and amuestres
T:No melas amuestras
T:©
T:©
C:Anonymous
Z:©
%%score [ 1 2 ]
L:1/8
Q:1/4=124
M:4/4
K:C
V:1 treble-8 nm="Tenor 1" snm="T 1"
V:2 treble-8 nm="Tenor 2" snm="T 2"
V:1
 z8 | A4 G4 | c3 d e2 d2 | A2 c4 B2 | c2 e2 e2 g2- | g fed f2 e2 | d4 c4 | z4 e3 e | f2 d2 e4 | %9
w: |No me-|las a- mue- *|* * stras|mas, no me- las|* a- * * mue- *|stras mas|que ma|ma- ta- ras,|
w: |Y a|un- que mue- ro|yo por el-||||||
 g3 g a2 f2 | g4 z2 g2- | g2 f2 e2 d2 | c2 e3 c d2 | B2 A2 B2 e2- | ec d2 B2 A2 | B4 !fermata!A4 || %16
w: que me ma- ta-|ras, que|* me ma- ta-|ras, que me ma-|ta- * ras, que|* me ma- ta- *|* ras.|
w: |||||||
 z8 | e4 f4 | e4 c4 | d4 e4 | A4 B4 | A8 |] %22
w: |Son tan|lin- dos|y tan|bel- *|los.|
w: |Que deo-|dos ma-|tas con-|el- *|las.|
V:2
 A4 G4 | c3 d e2 d2 | A2 c4 B2 | c2 e2 e2 g2- | gfed c2 B2 | A2 G2 A2 c2- | c2 B2 c4- | c4 z2 A2- | %8
w: No me-|las a- mue- stras|mas * *|* * no me-|* * * * las a|mue- * * *|* stras mas,|* que|
w: Y a|un- que mue- ro|yo por el-|los, * * *|||||
 AA B2 G2 A2 | z2 c3 c d2 | B2 c3 B G2 | A3 B c2 B2 | A2 c4 BA | G2 A4 G2 | A2 B2 G2 A2- | %15
w: * me ma- ta- ras,|que me ma-|ta- ras, * *|que me ma- ta-|ras, que * *|* ma- ta-|ras, que me ma-|
w: |||||||
"^#" A2 G2 !fermata!A4 || e4 f4 | e2 c2 d2 A2- | ABcd e2 c2- | c2 BA G2 E2 |"^#" F2 A4 G2 | A8 |] %22
w: * ta- ras.|Son tan-|lin- dos y tan|* * * * bel- *|||las.|
w: |Que a|to- dos ma- tas-|* * * * con el-|||las.|

